icons/heroku.svg

<?xml version="1.0" encoding="UTF-8"?>
<svg width="512px" height="144px" viewBox="0 0 512 144" version="1.1" xmlns="http://www.w3.org/2000/svg" xmlns:xlink="http://www.w3.org/1999/xlink" preserveAspectRatio="xMidYMid">
    <g fill="#430098">
        <path d="M116.494382,0 C123.538655,0 129.26992,5.62742772 129.434564,12.633833 L129.438202,12.9438202 L129.438202,130.876404 C129.438202,137.920677 123.809029,143.651942 116.804293,143.816586 L116.494382,143.820225 L12.9438202,143.820225 C5.8995473,143.820225 0.168282652,138.191051 0.00363861767,131.186316 L0,130.876404 L0,12.9438202 C0,5.89777561 5.62917374,0.168231299 12.6339089,0.00363750129 L12.9438202,0 L116.494382,0 Z M116.494382,7.19101124 L12.9438202,7.19101124 C9.84633394,7.19101124 7.31140331,9.6539073 7.19517478,12.723553 L7.19101124,12.9438202 L7.19101124,130.876404 C7.19101124,133.973891 9.6539073,136.508821 12.723553,136.62505 L12.9438202,136.629213 L116.494382,136.629213 C119.593624,136.629213 122.126881,134.166317 122.24303,131.096672 L122.247191,130.876404 L122.247191,12.9438202 C122.247191,9.77258427 119.667416,7.19101124 116.494382,7.19101124 Z M32.3595506,93.4831461 L48.5393258,107.865169 L32.3595506,122.247191 L32.3595506,93.4831461 Z M46.741573,21.5730337 L46.741573,62.4017978 C53.9217978,60.0647191 63.9586517,57.5280899 73.7078652,57.5280899 C82.5977528,57.5280899 87.9191011,61.0229213 90.8170787,63.9550562 C96.9090458,70.1178601 97.0837061,77.9431621 97.0772521,79.0552277 L97.0768539,79.1011236 L97.0786517,122.247191 L82.6966292,122.247191 L82.6966292,79.2988764 C82.6265169,75.9424719 81.0085393,71.9101124 73.7078652,71.9101124 C59.231173,71.9101124 43.0101231,79.1183624 42.5284133,79.3340461 L42.5186517,79.338427 L32.3595506,83.9406742 L32.3595506,21.5730337 L46.741573,21.5730337 Z M97.0786517,21.5730337 C96.1078652,29.7420225 92.7964045,37.5730337 86.2921348,44.9438202 L86.2921348,44.9438202 L71.9101124,44.9438202 C77.5622472,37.5280899 81.1110112,29.7240449 82.6966292,21.5730337 L82.6966292,21.5730337 Z"></path>
        <path d="M365.094831,45.8211236 C377.855281,45.8211236 391.117303,53.9253933 391.117303,73.3483146 C391.117303,92.7748315 377.855281,100.875506 365.094831,100.875506 C352.262472,100.875506 339.002247,92.7748315 339.002247,73.3483146 C339.002247,53.9253933 352.262472,45.8211236 365.094831,45.8211236 Z M481.819326,46.8260674 L481.819326,78.5132584 C481.819326,85.8211236 484.185169,89.12 489.921798,89.12 C495.654831,89.12 497.948764,85.8211236 497.948764,78.5132584 L497.948764,46.8260674 L512,46.8260674 L512,78.5833708 C512,92.6364045 505.262022,100.661573 489.777978,100.661573 C474.292135,100.661573 467.482247,92.6364045 467.482247,78.5833708 L467.482247,46.8260674 L481.819326,46.8260674 Z M176.134831,46.8260674 L176.134831,66.538427 L193.768989,66.538427 L193.768989,46.8260674 L208.107865,46.8260674 L208.107865,99.8741573 L193.768989,99.8741573 L193.768989,78.4395506 L176.134831,78.4395506 L176.134831,99.8741573 L161.797753,99.8741573 L161.797753,46.8260674 L176.134831,46.8260674 Z M264.42427,46.8260674 L264.42427,58.727191 L240.911461,58.727191 L240.911461,67.3294382 L257.686292,67.3294382 L257.686292,78.5132584 L240.911461,78.5132584 L240.911461,88.3325843 L265.644944,88.3325843 L265.644944,99.8741573 L226.574382,99.8741573 L226.574382,46.8260674 L264.42427,46.8260674 Z M302.108764,46.8260674 C315.728539,46.8260674 324.044944,51.3438202 324.044944,64.1024719 C324.044944,72.4170787 320.530337,77.2224719 313.578427,79.5847191 L324.83236,99.8741573 L309.635955,99.8741573 L299.383371,81.4525843 L295.440899,81.4525843 L295.440899,99.8741573 L281.391461,99.8741573 L281.391461,46.8260674 L302.108764,46.8260674 Z M421.413034,46.8260674 L421.413034,66.0404494 L436.039551,46.8260674 L452.668764,46.8260674 L434.818876,67.7591011 L454.245393,99.8741573 L438.044045,99.8741573 L425.501124,78.6534831 L421.413034,83.3851685 L421.413034,99.8741573 L407.077753,99.8741573 L407.077753,46.8260674 L421.413034,46.8260674 Z M365.094831,57.6503371 C357.56764,57.6503371 353.339326,63.5991011 353.339326,73.3483146 C353.339326,83.1011236 357.56764,89.4076404 365.094831,89.4076404 C372.550112,89.4076404 376.778427,83.1011236 376.778427,73.3483146 C376.778427,63.5991011 372.550112,57.6503371 365.094831,57.6503371 Z M301.605393,58.4377528 L295.440899,58.4377528 L295.440899,70.552809 L301.605393,70.552809 C307.484045,70.552809 310.06382,68.9042697 310.06382,64.4602247 C310.06382,60.0179775 307.484045,58.4377528 301.605393,58.4377528 Z"></path>
    </g>
</svg>

<svg xmlns="http://www.w3.org/2000/svg" viewBox="0 0 512 143.82">
  <g fill="#430098">
    <path d="M116.494 0c7.045 0 12.776 5.627 12.94 12.634l.005.31v117.932c0 7.045-5.63 12.776-12.634 12.94l-.31.005H12.944c-7.044 0-12.776-5.63-12.94-12.634l-.004-.31V12.943C0 5.898 5.63.168 12.634.004l.31-.004zm0 7.191H12.944a5.761 5.761 0 0 0-5.749 5.533l-.004.22v117.932a5.761 5.761 0 0 0 5.533 5.749l.22.004h103.55a5.76 5.76 0 0 0 5.749-5.532l.004-.22V12.943a5.76 5.76 0 0 0-5.753-5.753zM32.36 93.483l16.18 14.382-16.18 14.382zm14.382-71.91v40.829c7.18-2.337 17.217-4.874 26.966-4.874 8.89 0 14.211 3.495 17.11 6.427 6.091 6.163 6.266 13.988 6.26 15.1l-.001.046.002 43.146H82.697V79.3c-.07-3.357-1.688-7.389-8.99-7.389-14.476 0-30.697 7.208-31.179 7.424l-.01.004-10.158 4.603V21.573zm50.337 0c-.971 8.169-4.283 16-10.787 23.37H71.91c5.652-7.415 9.201-15.219 10.787-23.37zM365.095 45.821c12.76 0 26.022 8.104 26.022 27.527 0 19.427-13.262 27.528-26.022 27.528-12.833 0-26.093-8.101-26.093-27.528 0-19.423 13.26-27.527 26.093-27.527zm116.724 1.005v31.687c0 7.308 2.366 10.607 8.103 10.607 5.733 0 8.027-3.299 8.027-10.607V46.826H512v31.757c0 14.053-6.738 22.079-22.222 22.079-15.486 0-22.296-8.026-22.296-22.079V46.826zm-305.684 0v19.712h17.634V46.826h14.339v53.048h-14.339V78.44h-17.634v21.434h-14.337V46.826zm88.29 0v11.901H240.91v8.602h16.775v11.184h-16.775v9.82h24.734v11.541h-39.07V46.826zm37.684 0c13.62 0 21.936 4.518 21.936 17.276 0 8.315-3.515 13.12-10.467 15.483l11.254 20.29h-15.196l-10.253-18.422h-3.942v18.421h-14.05V46.826zm119.304 0V66.04l14.627-19.214h16.629l-17.85 20.933 19.426 32.115h-16.201l-12.543-21.22-4.088 4.731v16.49h-14.335V46.825zM365.095 57.65c-7.527 0-11.756 5.95-11.756 15.698 0 9.753 4.229 16.06 11.756 16.06 7.455 0 11.683-6.307 11.683-16.06 0-9.749-4.228-15.698-11.683-15.698zm-63.49.788h-6.164v12.115h6.164c5.879 0 8.459-1.649 8.459-6.093 0-4.442-2.58-6.022-8.459-6.022z"/>
  </g>
</svg>
